packages/sources/assets/src/assets/flag-al.svg

<svg width="28" height="20" viewBox="0 0 28 20" fill="none" xmlns="http://www.w3.org/2000/svg">
<mask id="mask0_503_2721" style="mask-type:alpha" maskUnits="userSpaceOnUse" x="0" y="0" width="28" height="20">
<rect width="28" height="20" rx="2" fill="white"/>
</mask>
<g mask="url(#mask0_503_2721)">
<rect width="28" height="20" fill="#EE343C"/>
<path fill-rule="evenodd" clip-rule="evenodd" d="M12.3865 4.38646C12.1617 4.16175 11.8097 4.12689 11.5452 4.30316L10.9558 4.6961C10.5299 4.98004 10.5697 5.61817 11.0275 5.84709L12.2981 6.4824C12.524 6.59533 12.6667 6.82617 12.6667 7.07869V7.33333C12.6667 7.70152 12.3682 8 12 8H11.4907C11.3872 8 11.2851 7.9759 11.1926 7.92962L9.09644 6.88156C8.83978 6.75323 8.5298 6.80353 8.32689 7.00644L7.98737 7.34596C7.66561 7.66772 7.75363 8.21015 8.16063 8.41365L9.10457 8.88562C9.50356 9.08511 9.53818 9.64121 9.16702 9.88865C8.73636 10.1758 8.86781 10.8402 9.37534 10.9417L9.93728 11.0541C10.4768 11.162 10.6346 11.8574 10.1944 12.1875L9.69128 12.5649C9.36306 12.811 9.53716 13.3333 9.94744 13.3333C9.98234 13.3333 10.0171 13.3291 10.051 13.3206L11.3128 13.0051C11.7912 12.8855 12.1661 13.4175 11.8925 13.8278C11.6535 14.1864 11.9105 14.6667 12.3415 14.6667H12.9249C13.1688 14.6667 13.3853 14.8227 13.4625 15.0541C13.6347 15.5707 14.3653 15.5707 14.5375 15.0541C14.6146 14.8227 14.8312 14.6667 15.075 14.6667H15.6585C16.0895 14.6667 16.3465 14.1864 16.1074 13.8278C15.8339 13.4175 16.2088 12.8855 16.6872 13.0051L17.949 13.3206C17.9829 13.3291 18.0176 13.3333 18.0526 13.3333C18.4628 13.3333 18.6369 12.811 18.3087 12.5649L17.8056 12.1875C17.3654 11.8574 17.5232 11.162 18.0627 11.0541L18.6246 10.9417C19.1322 10.8402 19.2636 10.1758 18.833 9.88865C18.4618 9.64121 18.4964 9.08511 18.8954 8.88562L19.8394 8.41365C20.2464 8.21015 20.3344 7.66772 20.0126 7.34596L19.6731 7.00644C19.4702 6.80353 19.1602 6.75323 18.9036 6.88156L16.8074 7.92962C16.7149 7.9759 16.6128 8 16.5093 8H16C15.6318 8 15.3333 7.70152 15.3333 7.33333V7.07869C15.3333 6.82617 15.476 6.59534 15.7018 6.48242C16.0944 6.28612 16.5621 6.05229 16.9727 5.84697C17.4306 5.61805 17.4701 4.98004 17.0441 4.6961L16.4547 4.30316C16.1903 4.12689 15.8382 4.16175 15.6135 4.38646L14.4714 5.5286C14.211 5.78895 13.7889 5.78894 13.5286 5.5286L12.3865 4.38646Z" fill="#262626"/>
</g>
</svg>

<svg width="28" height="20" fill="none" xmlns="http://www.w3.org/2000/svg"><mask id="a" style="mask-type:alpha" maskUnits="userSpaceOnUse" x="0" y="0" width="28" height="20"><rect width="28" height="20" rx="2" fill="#fff"/></mask><g mask="url(#a)"><path fill="#EE343C" d="M0 0h28v20H0z"/><path fill-rule="evenodd" clip-rule="evenodd" d="M12.386 4.386a.667.667 0 0 0-.84-.083l-.59.393a.667.667 0 0 0 .072 1.151l1.27.635a.667.667 0 0 1 .369.597v.254A.667.667 0 0 1 12 8h-.51a.666.666 0 0 1-.297-.07L9.096 6.882a.667.667 0 0 0-.77.124l-.339.34a.667.667 0 0 0 .174 1.068l.944.472c.399.2.433.755.062 1.003a.58.58 0 0 0 .208 1.053l.562.112c.54.108.698.803.257 1.133l-.503.378a.427.427 0 0 0 .256.768c.035 0 .07-.004.104-.012l1.262-.316a.54.54 0 0 1 .58.823.54.54 0 0 0 .448.839h.584c.244 0 .46.156.537.387a.567.567 0 0 0 1.075 0 .567.567 0 0 1 .538-.387h.584a.54.54 0 0 0 .448-.84.54.54 0 0 1 .58-.822l1.262.316a.427.427 0 0 0 .36-.756l-.503-.377a.637.637 0 0 1 .257-1.134l.562-.112a.581.581 0 0 0 .208-1.053.58.58 0 0 1 .062-1.003l.944-.472a.667.667 0 0 0 .174-1.068l-.34-.34a.667.667 0 0 0-.77-.124L16.808 7.93a.666.666 0 0 1-.298.07H16a.667.667 0 0 1-.667-.667V7.08c0-.253.143-.484.369-.597l1.27-.635a.666.666 0 0 0 .072-1.15l-.59-.394a.667.667 0 0 0-.84.083L14.47 5.53a.667.667 0 0 1-.942 0l-1.143-1.143Z" fill="#262626"/></g></svg>
